X:802
T:Planxty Hewlett
M:3/4
R:Waltz
L:1/8
C:Carolan
N:For the dance "An Enchanted Place" by Antony Heywood
N:For the dance "The Log Cabin" by Robin Rogers-Browne in "Legacy"
%%MIDI beat 100 95 80
S:Colin Hume's website,  colinhume.com  - chords can also be printed below the stave.
Q:1/4=112
K:D
P:A
V:1
%%MIDI chordprog 48     % String Ensemble 1
%%MIDI program 71       % Clarinet
%%MIDI gchord c2c
%%MIDI chordvol 60
|: AF | "D"D2 DE FG | "A/C#"AB c2 A2 | "Bm"d2 f2 fg | "D/A"x4 "G"x2 & fe d3B |\
"D/F#"A2 F2 F2 | "Em"G3B AG | "D/F#"AF D2 "G"D2 | "D"D4 :|
V:2 bass octave=-2
%%MIDI program 42       % Cello
|: z2 | d2 a2 d2 | c2 a2 c2 | B2 a2 B2 | A4 G2 |\
F2 A2 d2 | E2 B2 e2 | D2 F2 G2 | FE D2 :|
P:B
V:1
FG | "D"A2 F2 AB | "/C#"A2 F2 AB | "/B"A2 d2 d2 | "/A"dc BA GF |\
"Em"G2 E2 GA | "/D"G2 E2 EF | "A/C#"GF GB AG | "D"x4 "A7/C#"x2 & AF D3E |
V:2
z2 | d2 a2 d2 | c2 a2 c2 | B2 a2 B2 | A2 a2 A2 |\
E2 B2 E2 | D2 B2 D2 | C2 B2 C2 | D2 A2 c2 |
V:1
"D"FE F2 G2 | "A/C#"AB c2 A2 | "Bm"fe fg ag | "D/A"x4 "G"x2 & fe d3B |\
"D/F#"A2 F2 F2 | "Em"G3B AG | "D/F#"AF D2 "G"D2 | "D"D4 |]
V:2
d2 a2 d2 | c2 a2 c2 | B2 a2 B2 | A4 G2 |\
F2 A2 d2 | E2 B2 e2 | D2 F2 G2 | FE D2 |]

